X: 150107
T: BRUNSWICK WALTZ
R: Waltz.
%R: waltz
B: James Kerr "Merry Melodies" v.1 p.50 s.1 #7
Z: 2016 John Chambers <jc:trillian.mit.edu>
M: 3/4
L: 1/8
K: G
(GA) |\
B2B2c2 | d2d2(ge) | d2dedc | B2B2(GA) |\
B2B2c2 | d2d2g2 | a2(ag)ab | g4 ::\
ud2 |\
c'2c'2d2 | b2b2g2 | f2fagb | a2a2d2 |
c'2c'2d2 | b2b2g2 | a2(fd)ef | g4 ::\
(Bc) |\
d2d2e2 | d2d2(Bd) | c2c2(Ac) | B2GABc |\
d2d2e2 | d2d2g2 | gfedef | g4 :|

%%sep 1 1 500
%%sep 1 1 500

